images/5355836.svg

<?xml version="1.0" encoding="UTF-8"?>
<svg xmlns="http://www.w3.org/2000/svg" xmlns:xlink="http://www.w3.org/1999/xlink" width="300pt" height="300pt" viewBox="0 0 300 300" version="1.1">
<defs>
<g>
<symbol overflow="visible" id="glyph0-0">
<path style="stroke:none;" d="M 0.796875 2.828125 L 0.796875 -11.28125 L 8.796875 -11.28125 L 8.796875 2.828125 Z M 1.703125 1.9375 L 7.90625 1.9375 L 7.90625 -10.390625 L 1.703125 -10.390625 Z M 1.703125 1.9375 "/>
</symbol>
<symbol overflow="visible" id="glyph0-1">
<path style="stroke:none;" d="M 6.3125 -10.59375 C 5.164062 -10.59375 4.253906 -10.164062 3.578125 -9.3125 C 2.898438 -8.457031 2.5625 -7.296875 2.5625 -5.828125 C 2.5625 -4.359375 2.898438 -3.195312 3.578125 -2.34375 C 4.253906 -1.488281 5.164062 -1.0625 6.3125 -1.0625 C 7.457031 -1.0625 8.363281 -1.488281 9.03125 -2.34375 C 9.695312 -3.195312 10.03125 -4.359375 10.03125 -5.828125 C 10.03125 -7.296875 9.695312 -8.457031 9.03125 -9.3125 C 8.363281 -10.164062 7.457031 -10.59375 6.3125 -10.59375 Z M 6.3125 -11.875 C 7.945312 -11.875 9.253906 -11.328125 10.234375 -10.234375 C 11.210938 -9.140625 11.703125 -7.671875 11.703125 -5.828125 C 11.703125 -3.984375 11.210938 -2.507812 10.234375 -1.40625 C 9.253906 -0.3125 7.945312 0.234375 6.3125 0.234375 C 4.664062 0.234375 3.351562 -0.3125 2.375 -1.40625 C 1.394531 -2.507812 0.90625 -3.984375 0.90625 -5.828125 C 0.90625 -7.671875 1.394531 -9.140625 2.375 -10.234375 C 3.351562 -11.328125 4.664062 -11.875 6.3125 -11.875 Z M 6.3125 -11.875 "/>
</symbol>
<symbol overflow="visible" id="glyph0-2">
<path style="stroke:none;" d="M 1.578125 -11.671875 L 3.15625 -11.671875 L 3.15625 -6.890625 L 8.890625 -6.890625 L 8.890625 -11.671875 L 10.46875 -11.671875 L 10.46875 0 L 8.890625 0 L 8.890625 -5.5625 L 3.15625 -5.5625 L 3.15625 0 L 1.578125 0 Z M 1.578125 -11.671875 "/>
</symbol>
</g>
</defs>
<g id="surface31081">
<rect x="0" y="0" width="300" height="300" style="fill:rgb(100%,100%,100%);fill-opacity:1;stroke:none;"/>
<path style="fill:none;stroke-width:1.2;stroke-linecap:butt;stroke-linejoin:miter;stroke:rgb(0%,0%,0%);stroke-opacity:1;stroke-miterlimit:10;" d="M 92.726562 217.472656 L 101.039062 180.136719 "/>
<path style="fill:none;stroke-width:1.2;stroke-linecap:butt;stroke-linejoin:miter;stroke:rgb(0%,0%,0%);stroke-opacity:1;stroke-miterlimit:10;" d="M 101.039062 180.136719 L 72.863281 154.269531 "/>
<path style="fill:none;stroke-width:1.2;stroke-linecap:butt;stroke-linejoin:miter;stroke:rgb(0%,0%,0%);stroke-opacity:1;stroke-miterlimit:10;" d="M 104.308594 170.917969 L 81.765625 150.226562 "/>
<path style="fill:none;stroke-width:1.2;stroke-linecap:butt;stroke-linejoin:miter;stroke:rgb(0%,0%,0%);stroke-opacity:1;stroke-miterlimit:10;" d="M 137.53125 168.667969 L 101.039062 180.136719 "/>
<path style="fill:none;stroke-width:1.2;stroke-linecap:butt;stroke-linejoin:miter;stroke:rgb(0%,0%,0%);stroke-opacity:1;stroke-miterlimit:10;" d="M 72.863281 154.269531 L 81.175781 116.933594 "/>
<path style="fill:none;stroke-width:1.2;stroke-linecap:butt;stroke-linejoin:miter;stroke:rgb(0%,0%,0%);stroke-opacity:1;stroke-miterlimit:10;" d="M 84.21875 113.617188 L 70.132812 100.683594 "/>
<path style="fill:none;stroke-width:1.2;stroke-linecap:butt;stroke-linejoin:miter;stroke:rgb(100%,0%,0%);stroke-opacity:1;stroke-miterlimit:10;" d="M 70.132812 100.683594 L 56.042969 87.75 "/>
<path style="fill:none;stroke-width:1.2;stroke-linecap:butt;stroke-linejoin:miter;stroke:rgb(0%,0%,0%);stroke-opacity:1;stroke-miterlimit:10;" d="M 78.132812 120.246094 L 64.042969 107.3125 "/>
<path style="fill:none;stroke-width:1.2;stroke-linecap:butt;stroke-linejoin:miter;stroke:rgb(100%,0%,0%);stroke-opacity:1;stroke-miterlimit:10;" d="M 64.042969 107.3125 L 49.957031 94.378906 "/>
<path style="fill:none;stroke-width:1.2;stroke-linecap:butt;stroke-linejoin:miter;stroke:rgb(0%,0%,0%);stroke-opacity:1;stroke-miterlimit:10;" d="M 81.175781 116.933594 L 99.421875 111.199219 "/>
<path style="fill:none;stroke-width:1.2;stroke-linecap:butt;stroke-linejoin:miter;stroke:rgb(100%,0%,0%);stroke-opacity:1;stroke-miterlimit:10;" d="M 99.421875 111.199219 L 117.667969 105.464844 "/>
<path style=" stroke:none;fill-rule:nonzero;fill:rgb(100%,100%,100%);fill-opacity:1;" d="M 40 81.566406 L 53 81.566406 L 53 100.566406 L 40 100.566406 Z M 40 81.566406 "/>
<g style="fill:rgb(100%,0%,0%);fill-opacity:1;">
  <use xlink:href="#glyph0-1" x="40" y="96.417969"/>
</g>
<path style="fill:none;stroke-width:1.2;stroke-linecap:butt;stroke-linejoin:miter;stroke:rgb(100%,0%,0%);stroke-opacity:1;stroke-miterlimit:10;" d="M 117.667969 105.464844 L 131.753906 118.398438 "/>
<path style="fill:none;stroke-width:1.2;stroke-linecap:butt;stroke-linejoin:miter;stroke:rgb(0%,0%,0%);stroke-opacity:1;stroke-miterlimit:10;" d="M 131.753906 118.398438 L 145.84375 131.332031 "/>
<path style=" stroke:none;fill-rule:nonzero;fill:rgb(100%,100%,100%);fill-opacity:1;" d="M 111.667969 95.964844 L 124.667969 95.964844 L 124.667969 114.964844 L 111.667969 114.964844 Z M 111.667969 95.964844 "/>
<g style="fill:rgb(100%,0%,0%);fill-opacity:1;">
  <use xlink:href="#glyph0-1" x="111.667969" y="110.816406"/>
</g>
<path style="fill:none;stroke-width:1.2;stroke-linecap:butt;stroke-linejoin:miter;stroke:rgb(0%,0%,0%);stroke-opacity:1;stroke-miterlimit:10;" d="M 145.84375 131.332031 L 137.53125 168.667969 "/>
<path style="fill:none;stroke-width:1.2;stroke-linecap:butt;stroke-linejoin:miter;stroke:rgb(0%,0%,0%);stroke-opacity:1;stroke-miterlimit:10;" d="M 153.796875 137.023438 L 147.144531 166.890625 "/>
<path style="fill:none;stroke-width:1.2;stroke-linecap:butt;stroke-linejoin:miter;stroke:rgb(0%,0%,0%);stroke-opacity:1;stroke-miterlimit:10;" d="M 182.332031 119.863281 L 145.84375 131.332031 "/>
<path style="fill:none;stroke-width:1.2;stroke-linecap:butt;stroke-linejoin:miter;stroke:rgb(0%,0%,0%);stroke-opacity:1;stroke-miterlimit:10;" d="M 137.53125 168.667969 L 165.707031 194.535156 "/>
<path style="fill:none;stroke-width:1.2;stroke-linecap:butt;stroke-linejoin:miter;stroke:rgb(0%,0%,0%);stroke-opacity:1;stroke-miterlimit:10;" d="M 165.707031 194.535156 L 202.195312 183.066406 "/>
<path style="fill:none;stroke-width:1.2;stroke-linecap:butt;stroke-linejoin:miter;stroke:rgb(0%,0%,0%);stroke-opacity:1;stroke-miterlimit:10;" d="M 166.65625 184.800781 L 195.847656 175.628906 "/>
<path style="fill:none;stroke-width:1.2;stroke-linecap:butt;stroke-linejoin:miter;stroke:rgb(0%,0%,0%);stroke-opacity:1;stroke-miterlimit:10;" d="M 202.195312 183.066406 L 210.511719 145.730469 "/>
<path style="fill:none;stroke-width:1.2;stroke-linecap:butt;stroke-linejoin:miter;stroke:rgb(0%,0%,0%);stroke-opacity:1;stroke-miterlimit:10;" d="M 210.511719 145.730469 L 182.332031 119.863281 "/>
<path style="fill:none;stroke-width:1.2;stroke-linecap:butt;stroke-linejoin:miter;stroke:rgb(0%,0%,0%);stroke-opacity:1;stroke-miterlimit:10;" d="M 201.605469 149.773438 L 179.066406 129.082031 "/>
<path style="fill:none;stroke-width:1.2;stroke-linecap:butt;stroke-linejoin:miter;stroke:rgb(0%,0%,0%);stroke-opacity:1;stroke-miterlimit:10;" d="M 210.511719 145.730469 L 228.753906 139.996094 "/>
<path style="fill:none;stroke-width:1.2;stroke-linecap:butt;stroke-linejoin:miter;stroke:rgb(100%,0%,0%);stroke-opacity:1;stroke-miterlimit:10;" d="M 228.753906 139.996094 L 247 134.261719 "/>
<path style="fill:none;stroke-width:1.2;stroke-linecap:butt;stroke-linejoin:miter;stroke:rgb(0%,0%,0%);stroke-opacity:1;stroke-miterlimit:10;" d="M 182.332031 119.863281 L 186.492188 101.195312 "/>
<path style="fill:none;stroke-width:1.2;stroke-linecap:butt;stroke-linejoin:miter;stroke:rgb(100%,0%,0%);stroke-opacity:1;stroke-miterlimit:10;" d="M 186.492188 101.195312 L 190.648438 82.527344 "/>
<path style=" stroke:none;fill-rule:nonzero;fill:rgb(100%,100%,100%);fill-opacity:1;" d="M 178.648438 73.027344 L 203.648438 73.027344 L 203.648438 92.027344 L 178.648438 92.027344 Z M 178.648438 73.027344 "/>
<g style="fill:rgb(100%,0%,0%);fill-opacity:1;">
  <use xlink:href="#glyph0-1" x="178.648438" y="87.878906"/>
  <use xlink:href="#glyph0-2" x="191.242188" y="87.878906"/>
</g>
<path style=" stroke:none;fill-rule:nonzero;fill:rgb(100%,100%,100%);fill-opacity:1;" d="M 235 124.761719 L 260 124.761719 L 260 143.761719 L 235 143.761719 Z M 235 124.761719 "/>
<g style="fill:rgb(100%,0%,0%);fill-opacity:1;">
  <use xlink:href="#glyph0-1" x="235" y="139.613281"/>
  <use xlink:href="#glyph0-2" x="247.59375" y="139.613281"/>
</g>
</g>
</svg>

<svg xmlns="http://www.w3.org/2000/svg" xmlns:xlink="http://www.w3.org/1999/xlink" width="300pt" height="300pt" viewBox="0 0 300 300"><defs><symbol overflow="visible"><path d="M.797 2.828v-14.11h8V2.83zm.906-.89h6.203v-12.33H1.703zm0 0"/></symbol><symbol overflow="visible" id="a"><path d="M6.313-10.594c-1.15 0-2.06.43-2.735 1.28-.68.857-1.015 2.017-1.015 3.486 0 1.47.335 2.633 1.015 3.484.676.856 1.586 1.28 2.735 1.28 1.144.002 2.05-.424 2.718-1.28.665-.85 1-2.015 1-3.484 0-1.47-.335-2.63-1-3.484-.667-.852-1.573-1.282-2.717-1.282zm0-1.28c1.632 0 2.94.546 3.92 1.64.978 1.093 1.47 2.562 1.47 4.406 0 1.844-.492 3.32-1.47 4.422-.98 1.093-2.288 1.64-3.92 1.64-1.65 0-2.96-.546-3.938-1.64-.98-1.102-1.47-2.578-1.47-4.422 0-1.844.49-3.313 1.47-4.406.977-1.094 2.29-1.64 3.938-1.64zm0 0"/></symbol><symbol overflow="visible" id="b"><path d="M1.578-11.672h1.578v4.78H8.89v-4.78h1.58V0H8.89v-5.563H3.157V0H1.578zm0 0"/></symbol></defs><g><path fill="#fff" d="M0 0h300v300H0z"/><path d="M92.727 217.473l8.312-37.336M101.04 180.137L72.862 154.27M104.31 170.918l-22.544-20.69M137.53 168.668l-36.49 11.47M72.863 154.27l8.313-37.336M84.22 113.617l-14.087-12.933" stroke-width="1.2" stroke="#000" stroke-miterlimit="10" fill="none"/><path d="M70.133 100.684L56.043 87.75" stroke-width="1.2" stroke="#f00" stroke-miterlimit="10" fill="none"/><path d="M78.133 120.246l-14.09-12.933" stroke-width="1.2" stroke="#000" stroke-miterlimit="10" fill="none"/><path d="M64.043 107.313L49.957 94.38" stroke-width="1.2" stroke="#f00" stroke-miterlimit="10" fill="none"/><path d="M81.176 116.934l18.246-5.735" stroke-width="1.2" stroke="#000" stroke-miterlimit="10" fill="none"/><path d="M99.422 111.2l18.246-5.735" stroke-width="1.2" stroke="#f00" stroke-miterlimit="10" fill="none"/><path d="M40 81.566h13v19H40zm0 0" fill="#fff"/><use xlink:href="#a" x="40" y="96.418" fill="#f00"/><path d="M117.668 105.465l14.086 12.933" stroke-width="1.2" stroke="#f00" stroke-miterlimit="10" fill="none"/><path d="M131.754 118.398l14.09 12.934" stroke-width="1.2" stroke="#000" stroke-miterlimit="10" fill="none"/><path d="M111.668 95.965h13v19h-13zm0 0" fill="#fff"/><use xlink:href="#a" x="111.668" y="110.816" fill="#f00"/><path d="M145.844 131.332l-8.313 37.336M153.797 137.023l-6.652 29.868M182.332 119.863l-36.488 11.47M137.53 168.668l28.177 25.867M165.707 194.535l36.488-11.47M166.656 184.8l29.192-9.17M202.195 183.066l8.317-37.336M210.512 145.73l-28.18-25.867M201.605 149.773l-22.54-20.69M210.512 145.73l18.242-5.734" stroke-width="1.2" stroke="#000" stroke-miterlimit="10" fill="none"/><path d="M228.754 139.996L247 134.262" stroke-width="1.2" stroke="#f00" stroke-miterlimit="10" fill="none"/><path d="M182.332 119.863l4.16-18.668" stroke-width="1.2" stroke="#000" stroke-miterlimit="10" fill="none"/><path d="M186.492 101.195l4.156-18.668" stroke-width="1.2" stroke="#f00" stroke-miterlimit="10" fill="none"/><path d="M178.648 73.027h25v19h-25zm0 0" fill="#fff"/><g fill="#f00"><use xlink:href="#a" x="178.648" y="87.879"/><use xlink:href="#b" x="191.242" y="87.879"/></g><path d="M235 124.762h25v19h-25zm0 0" fill="#fff"/><g fill="#f00"><use xlink:href="#a" x="235" y="139.613"/><use xlink:href="#b" x="247.594" y="139.613"/></g></g></svg>
